X: 32
T:Mill-field
M:6/8
L:1/8
Q:110
R:Jig
K:G
G|A2B c>BA|B>AG d2B|A2F D2G|F>EF G2||
G|A2F D2d|B2G G2B|A2F D2G|F>EF G2||

